X:1
T: Horn Hornpipe
C:
R:Reel
Q: 232
K:Bb
M:4/4
L:1/8
|:((3de=e)|gf dB Fd ed|dc =Ed c2 cB|Ac e=e ag f_e|gf =eg f2 ((3d_e=e)|
gf dB Fd ed|dc =Ed c2 cB|Ac ea gc eA|c2 B2 B2:|
K:F
|:AB|cd cB Ac fa|gA Be d2 c2|Bc BA GB de|dc =Bd cA _B=B|
cd cB Ac fa|gA Be d2 c2|cb ge c^c de|1gf fe fB AB:|2F2 A2 F2||
